packages/kaspersky-hexa-ui-icons/src/iconsSVGs/24/OfficialBlog.svg

<svg width="24" height="24" viewBox="0 0 24 24" fill="none" xmlns="http://www.w3.org/2000/svg">
<path d="M13.6586 11.8642C13.6586 10.2724 12.6884 8.90716 11.3071 8.32756V15.4009C12.6884 14.8213 13.6586 13.4561 13.6586 11.8642Z" fill="black"/>
<path fill-rule="evenodd" clip-rule="evenodd" d="M18.8923 19.9065H21.9999L17.5891 13.8829L21.8662 8.3227H18.7921L15.1164 13.1548V14.6773L18.8923 19.9065ZM13.8132 19.9065V4.02014H11.3071V8.32756C12.6884 8.90716 13.6586 10.2724 13.6586 11.8642C13.6586 13.4561 12.6884 14.8213 11.3071 15.4009V19.9065H13.8132ZM10.1191 18.1912C10.0216 18.1957 9.92353 18.1979 9.82492 18.1979C6.32691 18.1979 3.49121 15.3622 3.49121 11.8642C3.49121 8.36621 6.32691 5.53052 9.82492 5.53052C9.92353 5.53052 10.0216 5.53277 10.1191 5.53723V8.04164C10.022 8.03427 9.92391 8.03052 9.82492 8.03052C7.70762 8.03052 5.99121 9.74692 5.99121 11.8642C5.99121 13.9815 7.70762 15.6979 9.82492 15.6979C9.92391 15.6979 10.022 15.6942 10.1191 15.6868V18.1912Z" fill="black"/>
<path d="M11.3066 3.9397H13.8095V19.8087H11.3066V3.9397Z" fill="black"/>
<path d="M5.30362 14.845L2 18.1483L3.912 20.0603L7.21562 16.757L5.30362 14.845Z" fill="black"/>
</svg>

<svg xmlns="http://www.w3.org/2000/svg" width="24" height="24" fill="none" viewBox="0 0 24 24"><path fill="#000" d="M13.6586 11.8642c0-1.5918-.9702-2.957-2.3515-3.5366v7.0733c1.3813-.5796 2.3515-1.9448 2.3515-3.5367"/><path fill="#000" fill-rule="evenodd" d="M18.8923 19.9065h3.1076l-4.4108-6.0236 4.2771-5.5602h-3.0741l-3.6757 4.8321v1.5225zm-5.0791 0V4.0201h-2.5061v4.3075c1.3813.5796 2.3515 1.9448 2.3515 3.5366 0 1.5919-.9702 2.9571-2.3515 3.5367v4.5056zm-3.6941-1.7153a6.4 6.4 0 0 1-.2942.0067c-3.498 0-6.3337-2.8357-6.3337-6.3337S6.327 5.5305 9.825 5.5305q.148 0 .2942.0067v2.5044a4 4 0 0 0-.2942-.011c-2.1173 0-3.8337 1.7163-3.8337 3.8336s1.7164 3.8337 3.8337 3.8337q.1485 0 .2942-.0111z" clip-rule="evenodd"/><path fill="#000" d="M11.307 3.94h2.503v15.869h-2.503zM5.304 14.845 2 18.148l1.912 1.912 3.304-3.303z"/></svg>
